X:494
T: WAS TRAEGT DIE GANS
N: E1751
O: Europa, Mitteleuropa, Deutschland, Schlesien
R: Scherz -, Spiel - Lied, Reimspiel
M: 3/4
L: 1/16
K: G
D2D3D | G4G4F2G2 | A4D4
E3E | D8
D2D2 | c4c2c2A3c | B4B4
G3B | A4A4G3A | B4B4
A3A | G4z2

